;FLAVOR:Marlin
;TIME:5660
;Filament used: 3.24894m
;Layer height: 0.2
;MINX:91.811
;MINY:89.311
;MINZ:0.2
;MAXX:128.187
;MAXY:131.292
;MAXZ:73.6
;TARGET_MACHINE.NAME:SV06
;Generated with Cura_SteamEngine 5.10.1
M140 S70
M105
M190 S70
M104 S215
M105
M109 S215
M201 X500.00 Y500.00 Z100.00 E5000.00 ;Setup machine max acceleration
M203 X500.00 Y500.00 Z10.00 E50.00 ;Setup machine max feedrate
M204 P500.00 R1000.00 T500.00 ;Setup Print/Retract/Travel acceleration
M205 X8.00 Y8.00 Z0.40 E5.00 ;Setup Jerk
M220 S100 ;Reset Feedrate
M221 S100 ;Reset Flowrate

G28 ;Home
M420 S1 ;use bed mesh, must have used G29 previously

G92 E0 ;Reset Extruder
G1 Z2.0 F3000 ;Move Z Axis up
G1 X10.1 Y20 Z0.28 F5000.0 ;Move to start position
G1 X10.1 Y200.0 Z0.28 F1500.0 E15 ;Draw the first line
G1 X10.4 Y200.0 Z0.28 F5000.0 ;Move to side a little
G1 X10.4 Y20 Z0.28 F1500.0 E30 ;Draw the second line
G92 E0 ;Reset Extruder
G1 Z2.0 F3000 ;Move Z Axis up

M82 ;absolute extrusion mode
G92 E0
G92 E0
G1 F2400 E-2
;LAYER_COUNT:366
;LAYER:0
M107
M204 S500
M205 X10 Y10
G1 F600 Z0.6
G0 F3000 X95.799 Y96.209 Z0.6
M204 S1000
M205 X5 Y5
;TYPE:SKIRT
G1 F600 Z0.2
G1 F2400 E0
G1 F900 X96.965 Y95.273 E0.0746
G1 X97.372 Y94.957 E0.1003
G1 X99.51 Y93.201 E0.23833
G1 X101.221 Y91.72 E0.35123
G1 X101.742 Y91.328 E0.38376
G1 X102.338 Y91.016 E0.41732
G1 X103.391 Y90.565 E0.47447
G1 X104.119 Y90.287 E0.51335
G1 X104.889 Y90.052 E0.55352
G1 X105.951 Y89.762 E0.60844
G1 X106.981 Y89.571 E0.6607
G1 X107.993 Y89.415 E0.71179
G1 X108.883 Y89.353 E0.7563
G1 X109.909 Y89.311 E0.80753
G1 X110.643 Y89.329 E0.84416
G1 X111.814 Y89.401 E0.90269
G1 X112.852 Y89.543 E0.95496
G1 X113.742 Y89.694 E1
G1 X114.75 Y89.949 E1.05187
G1 X115.584 Y90.183 E1.09508
G1 X116.568 Y90.548 E1.14744
G1 X117.519 Y90.931 E1.19859
G1 X118.389 Y91.37 E1.24721
G1 X119.218 Y91.811 E1.29406
G1 X120.053 Y92.35 E1.34364
G1 X120.81 Y92.863 E1.38926
G1 X121.641 Y93.532 E1.44249
G1 X122.327 Y94.116 E1.48743
G1 X123.032 Y94.822 E1.53721
G1 X123.686 Y95.509 E1.58453
G1 X124.332 Y96.313 E1.63599
G1 X124.907 Y97.074 E1.68357
G1 X125.309 Y97.69 E1.72027
G1 X125.956 Y98.754 E1.7824
G1 X126.395 Y99.641 E1.83177
G1 X126.791 Y100.489 E1.87847
G1 X127.15 Y101.463 E1.93026
G1 X127.444 Y102.343 E1.97654
G1 X127.694 Y103.314 E2.02657
G1 X127.886 Y104.148 E2.06926
G1 X128.034 Y105.189 E2.12172
G1 X128.149 Y106.191 E2.17204
G1 X128.177 Y107.12 E2.21841
G1 X128.187 Y108.054 E2.26501
G1 X128.107 Y109.142 E2.31944
G1 X128.013 Y110.032 E2.36409
G1 X127.841 Y111.006 E2.41343
G1 X127.691 Y111.735 E2.45056
G1 X127.543 Y112.298 E2.47961
G1 X127.366 Y112.885 E2.51019
G1 X127.05 Y113.852 E2.56095
G1 X126.709 Y114.668 E2.60507
G1 X126.278 Y115.631 E2.65771
G1 X125.797 Y116.498 E2.70717
G1 X125.299 Y117.349 E2.75636
G1 X124.709 Y118.187 E2.80749
G1 X124.312 Y118.726 E2.84089
G1 X122.722 Y120.954 E2.97745
G1 X121.197 Y123.228 E3.11405
G1 X119.762 Y125.503 E3.24824
G1 X118.437 Y127.722 E3.37718
G1 X118.079 Y128.255 E3.40922
G1 X117.511 Y129.013 E3.45647
G1 X116.992 Y129.608 E3.49586
G1 X115.906 Y130.4 E3.56292
G1 X115.138 Y130.817 E3.60652
G1 X114.611 Y131.022 E3.63473
G1 X114.015 Y131.19 E3.66563
G1 X113.131 Y131.268 E3.7099
G1 X111.714 Y131.25 E3.7806
G1 X108.122 Y131.266 E3.95981
G1 X106.982 Y131.292 E4.0167
G1 X106.656 Y131.249 E4.0331
G1 X106.263 Y131.067 E4.05471
G1 X105.989 Y130.792 E4.07408
G1 X105.731 Y130.906 E4.08815
G1 X105.516 Y130.948 E4.09908
G1 X105.245 Y130.938 E4.11261
G1 X104.784 Y130.791 E4.13675
G1 X103.609 Y130.094 E4.20491
G1 X103.087 Y129.648 E4.23916
G1 X102.597 Y129.148 E4.27409
G1 X102.075 Y128.471 E4.31674
G1 X101.728 Y127.915 E4.34944
G1 X100.042 Y125.116 E4.51246
G1 X98.59 Y122.863 E4.64618
G1 X97.068 Y120.642 E4.78051
G1 X96.269 Y119.551 E4.84797
G1 X96.194 Y119.431 E4.85503
G1 X95.107 Y117.924 E4.94773
G1 X94.541 Y117.083 E4.99831
G1 X94.189 Y116.473 E5.03345
G1 X93.576 Y115.326 E5.09833
G1 X93.211 Y114.469 E5.1448
G1 X92.865 Y113.598 E5.19156
G1 X92.562 Y112.636 E5.24188
G1 X92.3 Y111.687 E5.29099
G1 X92.146 Y110.925 E5.32978
G1 X91.952 Y109.784 E5.38752
G1 X91.865 Y108.756 E5.43899
G1 X91.811 Y107.819 E5.48582
G1 X91.835 Y106.816 E5.53587
G1 X91.891 Y105.816 E5.58584
G1 X92.011 Y104.888 E5.63252
G1 X92.175 Y103.886 E5.68318
G1 X92.394 Y102.973 E5.73002
G1 X92.65 Y102.043 E5.77814
G1 X92.993 Y101.077 E5.82928
G1 X93.344 Y100.182 E5.87725
G1 X93.698 Y99.453 E5.91768
G1 X94.196 Y98.497 E5.97146
G1 X94.754 Y97.598 E6.02425
G1 X95.243 Y96.867 E6.06812
G1 X95.799 Y96.209 E6.1111
M204 S500
M205 X10 Y10
G0 F3000 X96.219 Y96.641
M204 S1000
M205 X5 Y5
G1 F900 X97.333 Y95.747 E6.18236
G1 X97.753 Y95.421 E6.20889
G1 X99.891 Y93.665 E6.34692
G1 X101.582 Y92.2 E6.45854
G1 X102.066 Y91.836 E6.48875
G1 X102.616 Y91.548 E6.51973
G1 X103.605 Y91.126 E6.57337
G1 X104.333 Y90.848 E6.61225
G1 X105.047 Y90.631 E6.64948
G1 X106.109 Y90.341 E6.7044
G1 X107.073 Y90.164 E6.7533
G1 X108.035 Y90.014 E6.80188
G1 X108.925 Y89.952 E6.84639
G1 X109.895 Y89.911 E6.89482
G1 X110.607 Y89.928 E6.93036
G1 X111.733 Y89.996 E6.98663
G1 X112.753 Y90.135 E7.03799
G1 X113.595 Y90.276 E7.08059
G1 X114.588 Y90.527 E7.13168
G1 X115.422 Y90.761 E7.1749
G1 X116.345 Y91.105 E7.22404
G1 X117.249 Y91.467 E7.27262
G1 X118.107 Y91.9 E7.32057
G1 X118.936 Y92.341 E7.36742
G1 X119.716 Y92.847 E7.41381
G1 X120.473 Y93.36 E7.45943
G1 X121.253 Y93.99 E7.50945
G1 X121.902 Y94.54 E7.55189
G1 X122.597 Y95.236 E7.60096
G1 X123.251 Y95.923 E7.64828
G1 X123.854 Y96.675 E7.69637
G1 X124.405 Y97.403 E7.74192
G1 X124.797 Y98.002 E7.77764
G1 X125.418 Y99.02 E7.83713
G1 X125.851 Y99.895 E7.88584
G1 X126.247 Y100.743 E7.93253
G1 X126.581 Y101.654 E7.98094
G1 X126.863 Y102.492 E8.02505
G1 X127.109 Y103.449 E8.07435
G1 X127.301 Y104.283 E8.11704
G1 X127.438 Y105.259 E8.16621
G1 X127.549 Y106.209 E8.21393
G1 X127.577 Y107.126 E8.2597
G1 X127.587 Y108.06 E8.3063
G1 X127.51 Y109.08 E8.35734
G1 X127.422 Y109.928 E8.39987
G1 X127.253 Y110.885 E8.44835
G1 X127.103 Y111.614 E8.48549
G1 X126.969 Y112.124 E8.51179
G1 X126.795 Y112.7 E8.54181
G1 X126.496 Y113.621 E8.59012
G1 X126.161 Y114.423 E8.63348
G1 X125.73 Y115.386 E8.68612
G1 X125.279 Y116.196 E8.73237
G1 X124.808 Y117.004 E8.77903
G1 X124.226 Y117.831 E8.82949
G1 X123.829 Y118.37 E8.86288
G1 X122.224 Y120.62 E9.00077
G1 X120.699 Y122.894 E9.13737
G1 X119.255 Y125.183 E9.27239
G1 X117.939 Y127.388 E9.4005
G1 X117.598 Y127.896 E9.43103
G1 X117.059 Y128.618 E9.47598
G1 X116.584 Y129.162 E9.51201
G1 X115.552 Y129.915 E9.57575
G1 X114.919 Y130.259 E9.61169
G1 X114.448 Y130.444 E9.63693
G1 X113.905 Y130.597 E9.66508
G1 X113.078 Y130.67 E9.7065
G1 X111.72 Y130.65 E9.77426
G1 X108.108 Y130.666 E9.95446
G1 X106.968 Y130.692 E10.01135
G1 X106.752 Y130.657 E10.02227
G1 X106.564 Y130.548 E10.03311
G1 X106.426 Y130.378 E10.04403
G1 X106.354 Y130.106 E10.05807
G1 X106.374 Y129.693 E10.0787
G1 X106.117 Y129.634 E10.09186
G1 X105.932 Y130.028 E10.11357
G1 X105.801 Y130.202 E10.12444
G1 X105.616 Y130.317 E10.13531
G1 X105.401 Y130.359 E10.14623
G1 X105.09 Y130.275 E10.16231
G1 X103.957 Y129.603 E10.22803
G1 X103.513 Y129.226 E10.25709
G1 X103.071 Y128.78 E10.28841
G1 X102.584 Y128.153 E10.32802
G1 X102.242 Y127.605 E10.36025
G1 X100.556 Y124.806 E10.52327
G1 X99.085 Y122.524 E10.65872
G1 X97.552 Y120.287 E10.79402
G1 X96.753 Y119.196 E10.86148
G1 X96.689 Y119.092 E10.86758
G1 X95.604 Y117.588 E10.9601
G1 X95.061 Y116.783 E11.00854
G1 X94.718 Y116.189 E11.04276
G1 X94.128 Y115.09 E11.10499
G1 X93.768 Y114.247 E11.15073
G1 X93.437 Y113.417 E11.19531
G1 X93.14 Y112.476 E11.24454
G1 X92.888 Y111.568 E11.29155
G1 X92.738 Y110.824 E11.32941
G1 X92.544 Y109.683 E11.38715
G1 X92.464 Y108.72 E11.43536
G1 X92.411 Y107.833 E11.4797
G1 X92.434 Y106.849 E11.5288
G1 X92.486 Y105.893 E11.57657
G1 X92.603 Y104.984 E11.62229
G1 X92.759 Y104.026 E11.67072
G1 X92.973 Y103.131 E11.71663
G1 X93.216 Y102.243 E11.76256
G1 X93.552 Y101.295 E11.81274
G1 X93.884 Y100.444 E11.85831
G1 X94.231 Y99.729 E11.89796
G1 X94.706 Y98.813 E11.94944
G1 X95.253 Y97.932 E12.00117
G1 X95.742 Y97.201 E12.04505
G1 X96.219 Y96.641 E12.08175
M204 S500
M205 X10 Y10
G1 F2400 E10.08175
G1 F600 Z0.6
G0 F3000 X105.56 Y129.432 Z0.6
M204 S1000
M205 X5 Y5
G1 F600 Z0.2
G1 F2400 E12.08175
G1 F900 X105.396 Y129.759 E12.1
G1 X104.308 Y129.114 E12.1631
G1 X103.902 Y128.769 E12.18969
G1 X103.498 Y128.359 E12.2184
G1 X103.093 Y127.836 E12.2514
G1 X102.756 Y127.295 E12.2832
G1 X101.07 Y124.496 E12.44622
G1 X99.58 Y122.185 E12.5834
G1 X98.036 Y119.932 E12.71967
G1 X97.263 Y118.879 E12.78484
G1 X97.189 Y118.76 E12.79183
G1 X96.101 Y117.252 E12.8846
G1 X95.58 Y116.482 E12.93099
G1 X95.246 Y115.905 E12.96425
G1 X94.68 Y114.854 E13.0238
G1 X94.325 Y114.023 E13.06889
G1 X94.009 Y113.236 E13.1112
G1 X93.718 Y112.314 E13.15943
G1 X93.476 Y111.449 E13.20424
G1 X93.329 Y110.722 E13.24125
G1 X93.142 Y109.633 E13.29637
G1 X93.063 Y108.683 E13.34393
G1 X93.011 Y107.847 E13.38572
G1 X93.033 Y106.881 E13.43393
G1 X93.081 Y105.969 E13.47949
G1 X93.195 Y105.08 E13.52421
G1 X93.343 Y104.165 E13.57045
G1 X93.552 Y103.289 E13.61538
G1 X93.795 Y102.401 E13.66131
G1 X94.111 Y101.512 E13.70838
G1 X94.424 Y100.706 E13.75152
G1 X94.764 Y100.005 E13.79039
G1 X95.239 Y99.089 E13.84187
G1 X95.752 Y98.266 E13.89025
G1 X96.241 Y97.535 E13.93413
G1 X96.637 Y97.075 E13.96441
G1 X97.701 Y96.221 E14.03248
G1 X98.13 Y95.888 E14.05957
G1 X100.272 Y94.129 E14.19785
G1 X101.975 Y92.654 E14.31025
G1 X102.386 Y92.346 E14.33587
G1 X102.852 Y92.1 E14.36216
G1 X103.82 Y91.686 E14.41469
G1 X104.508 Y91.422 E14.45145
G1 X105.205 Y91.21 E14.4878
G1 X106.267 Y90.92 E14.54272
G1 X107.167 Y90.757 E14.58836
G1 X108.077 Y90.613 E14.63432
G1 X108.967 Y90.551 E14.67883
G1 X109.881 Y90.511 E14.72447
G1 X110.571 Y90.527 E14.75891
G1 X111.697 Y90.595 E14.81519
G1 X112.654 Y90.727 E14.86338
G1 X113.496 Y90.868 E14.90597
G1 X114.426 Y91.105 E14.95386
G1 X115.26 Y91.339 E14.99707
G1 X116.123 Y91.662 E15.04304
G1 X116.979 Y92.003 E15.08901
G1 X117.826 Y92.43 E15.13634
G1 X118.61 Y92.845 E15.18059
G1 X119.38 Y93.344 E15.22637
G1 X120.096 Y93.827 E15.26946
G1 X120.865 Y94.448 E15.31877
G1 X121.514 Y94.998 E15.36121
G1 X122.163 Y95.65 E15.40711
G1 X122.783 Y96.299 E15.45189
G1 X123.376 Y97.038 E15.49916
G1 X123.903 Y97.732 E15.54263
G1 X124.285 Y98.315 E15.57741
G1 X124.88 Y99.286 E15.63422
G1 X125.308 Y100.15 E15.68233
G1 X125.684 Y100.95 E15.72643
G1 X126.013 Y101.846 E15.77405
G1 X126.282 Y102.641 E15.81592
G1 X126.524 Y103.584 E15.86449
G1 X126.716 Y104.418 E15.90719
G1 X126.842 Y105.33 E15.95312
G1 X126.949 Y106.228 E15.99824
G1 X126.977 Y107.132 E16.04336
G1 X126.987 Y108.066 E16.08996
G1 X126.913 Y109.019 E16.13765
G1 X126.831 Y109.824 E16.17802
G1 X126.665 Y110.765 E16.22569
G1 X126.522 Y111.463 E16.26124
G1 X126.395 Y111.95 E16.28635
G1 X126.224 Y112.516 E16.31584
G1 X125.942 Y113.39 E16.36166
G1 X125.613 Y114.179 E16.40431
G1 X125.206 Y115.094 E16.45427
G1 X124.76 Y115.895 E16.50001
G1 X124.317 Y116.659 E16.54407
G1 X123.742 Y117.476 E16.59391
G1 X123.346 Y118.015 E16.62728
G1 X121.726 Y120.286 E16.76646
G1 X120.201 Y122.56 E16.90306
G1 X118.748 Y124.863 E17.03891
G1 X117.441 Y127.054 E17.16619
G1 X117.116 Y127.538 E17.19528
G1 X116.607 Y128.223 E17.23785
G1 X116.173 Y128.72 E17.27077
G1 X115.262 Y129.39 E17.32719
G1 X114.697 Y129.702 E17.35939
G1 X114.285 Y129.866 E17.38151
G1 X113.791 Y130.005 E17.40712
G1 X113.087 Y130.07 E17.44239
G1 X111.726 Y130.05 E17.5103
G1 X108.094 Y130.066 E17.6915
G1 X106.954 Y130.092 E17.74839
G1 X106.946 Y129.742 E17.76586
M204 S500
M205 X10 Y10
G1 F2400 E15.76586
G1 F600 Z0.6
G0 F3000 X104.653 Y115.493 Z0.6
M204 S1000
M205 X5 Y5
G1 F600 Z0.2
G1 F2400 E17.76586
G1 F900 X108.924 Y115.493 E17.97894
G1 X108.948 Y115.517 E17.98063
G1 X109.067 Y115.557 E17.98689
G1 X109.864 Y115.649 E18.02692
G1 X109.927 Y115.65 E18.03006
G1 X110.93 Y115.553 E18.08034
G1 X111.074 Y115.499 E18.08801
G1 X111.08 Y115.492 E18.08847
G1 X115.343 Y115.492 E18.30115
G1 X115.365 Y115.564 E18.30491
G1 X114.904 Y115.868 E18.33246
G1 X113.965 Y116.35 E18.38512
G1 X112.962 Y116.736 E18.43873
G1 X111.947 Y117.001 E18.49107
G1 X111.457 Y117.074 E18.51578
G1 X111.232 Y116.999 E18.52762
G1 X111.204 Y116.991 E18.52907
G1 X110.822 Y116.905 E18.54861
G1 X110.792 Y116.9 E18.55012
G1 X109.984 Y116.803 E18.59072
G1 X109.929 Y116.802 E18.59347
G1 X108.897 Y116.867 E18.64506
G1 X108.856 Y116.872 E18.64712
G1 X108.175 Y117.012 E18.6818
G1 X107.758 Y116.936 E18.70295
G1 X106.741 Y116.634 E18.75588
G1 X105.767 Y116.224 E18.8086
G1 X104.844 Y115.715 E18.86119
G1 X104.631 Y115.563 E18.87424
G1 X104.653 Y115.493 E18.8779
M204 S500
M205 X10 Y10
G1 F2400 E16.8779
G1 F600 Z0.6
G0 F3000 X107.027 Y116.093 Z0.6
M204 S1000
M205 X5 Y5
G1 F600 Z0.2
G1 F2400 E18.8779
G1 F900 X108.765 Y116.093 E18.96461
G1 X108.77 Y116.096 E18.9649
G1 X108.998 Y116.153 E18.97663
G1 X109.593 Y116.222 E19.00651
G1 X108.859 Y116.268 E19.0432
G1 X108.735 Y116.284 E19.04944
G1 X108.169 Y116.4 E19.07827
G1 X107.891 Y116.35 E19.09236
G1 X107.027 Y116.093 E19.13733
M204 S500
M205 X10 Y10
G1 F2400 E17.13733
G1 F600 Z0.6
G0 F3000 X110.208 Y116.225 Z0.6
M204 S1000
M205 X5 Y5
G1 F600 Z0.2
G1 F2400 E19.13733
G1 F900 X110.988 Y116.15 E19.17642
G1 X111.219 Y116.092 E19.1883
G1 X112.965 Y116.092 E19.27541
G1 X112.782 Y116.163 E19.28521
G1 X111.819 Y116.414 E19.33486
G1 X111.51 Y116.46 E19.35044
G1 X111.421 Y116.43 E19.35513
G1 X111.336 Y116.406 E19.35953
G1 X110.954 Y116.32 E19.37907
G1 X110.863 Y116.304 E19.38368
G1 X110.208 Y116.225 E19.41659
M204 S500
M205 X10 Y10
G1 F2400 E17.41659
G1 F600 Z0.6
G0 F3000 X113.001 Y121.871 Z0.6
M204 S1000
M205 X5 Y5
G1 F600 Z0.2
G1 F2400 E19.41659
G1 F900 X113.678 Y121.734 E19.45105
G1 X113.708 Y121.726 E19.4526
G1 X113.853 Y121.681 E19.46018
G1 X114.257 Y122.351 E19.49921
G1 X114.262 Y122.359 E19.49968
G1 X114.646 Y122.951 E19.53489
G1 X114.787 Y123.578 E19.56695
G1 X114.744 Y124.072 E19.59169
G1 X114.355 Y125.213 E19.65183
G1 X113.731 Y126.073 E19.70484
G1 X113.253 Y126.414 E19.73413
G1 X113.2 Y126.435 E19.73698
G1 X112.204 Y125.76 E19.797
G1 X112.147 Y125.729 E19.80024
G1 X111.655 Y125.533 E19.82666
G1 X111.583 Y125.515 E19.83037
G1 X110.815 Y125.415 E19.869
G1 X110.776 Y125.412 E19.87096
G1 X109.161 Y125.413 E19.95153
G1 X109.126 Y125.415 E19.95328
G1 X108.658 Y125.47 E19.97679
G1 X108.607 Y125.481 E19.97939
G1 X108.11 Y125.63 E20.00528
G1 X108.053 Y125.653 E20.00834
G1 X107.518 Y125.943 E20.0387
G1 X107.482 Y125.966 E20.04083
G1 X106.846 Y126.439 E20.08038
G1 X106.376 Y126.166 E20.10749
G1 X106.111 Y125.896 E20.12637
G1 X105.657 Y125.145 E20.17015
G1 X105.169 Y123.809 E20.24111
G1 X105.134 Y123.468 E20.25821
G1 X105.162 Y123.304 E20.26651
G1 X105.31 Y122.971 E20.28469
G1 X106.005 Y122.062 E20.34178
G1 X106.383 Y121.744 E20.36642
G1 X107.001 Y121.87 E20.39789
G1 X107.001 Y123.438 E20.47612
G1 X107.04 Y123.587 E20.4838
G1 X107.148 Y123.696 E20.49146
G1 X107.301 Y123.738 E20.49937
G1 X112.701 Y123.737 E20.76878
G1 X112.85 Y123.698 E20.77646
G1 X112.959 Y123.59 E20.78412
G1 X113.001 Y123.437 E20.79204
G1 X113.001 Y121.871 E20.87016
M204 S500
M205 X10 Y10
G0 F3000 X113.601 Y122.426
M204 S1000
M205 X5 Y5
G1 F900 X113.743 Y122.661 E20.88386
G1 X113.759 Y122.686 E20.88534
G1 X114.084 Y123.188 E20.91518
G1 X114.181 Y123.617 E20.93712
G1 X114.152 Y123.949 E20.95375
G1 X113.817 Y124.933 E21.00561
G1 X113.303 Y125.641 E21.04926
G1 X113.204 Y125.712 E21.05533
G1 X112.541 Y125.263 E21.09528
G1 X112.369 Y125.172 E21.10499
G1 X111.877 Y124.976 E21.13141
G1 X111.66 Y124.92 E21.14259
G1 X110.892 Y124.82 E21.18123
G1 X110.775 Y124.812 E21.18708
G1 X109.16 Y124.813 E21.26766
G1 X109.056 Y124.819 E21.27285
G1 X108.588 Y124.874 E21.29636
G1 X108.435 Y124.906 E21.30416
G1 X107.938 Y125.055 E21.33005
G1 X107.767 Y125.126 E21.33928
G1 X107.232 Y125.416 E21.36965
G1 X107.124 Y125.485 E21.37604
G1 X106.806 Y125.722 E21.39583
G1 X106.747 Y125.688 E21.39922
G1 X106.589 Y125.527 E21.41048
G1 X106.2 Y124.883 E21.44801
G1 X105.759 Y123.676 E21.51212
G1 X105.739 Y123.485 E21.5217
G1 X105.828 Y123.282 E21.53276
G1 X106.401 Y122.533 E21.57981
G1 X106.401 Y123.438 E21.62496
